src/topics/icons/spark.svg

<svg height="258" preserveAspectRatio="xMidYMid" viewBox="0 0 256 258" width="256" xmlns="http://www.w3.org/2000/svg"><g fill="#ffa64d"><path d="m13.221978 183.044689c16.785348-17.066667 231.05641-178.26227142 234.713553-174.60512856 2.813187 2.81318686-156.5069596 219.61611756-173.3860805 236.58901056-16.8791208 16.972894-44.2608058 16.785348-61.1399267-.281318-16.97289376-17.066667-16.97289376-44.729671-.1875458-61.702564z" opacity=".5"/><path d="m22.6930403 175.449084c20.6300366-12.096703 230.1186817-95.1794869 232.6505497-90.678388 1.969231 3.469597-168.791209 154.537729-189.5150186 166.540659-20.6300366 12.002931-46.9802198 4.782418-58.88937726-16.22271-11.90915751-20.817583-4.87619048-47.542857 15.75384616-59.639561z" opacity=".3"/><path d="m82.0512821 235.27619c12.0029304-20.817582 94.3355309-231.80659293 89.9282049-234.33846106-3.469597-1.96923077-153.3186811 170.10402906-165.32161154 190.92161206-11.90915751 20.817582-4.68864469 47.355311 16.12893774 59.264469 20.7238095 12.00293 47.2615384 4.87619 59.2644689-15.84762z" opacity=".3"/><path d="m32.7267399 171.041758c23.0681319-6.282784 216.5216121-30.194872 217.9282051-25.224908 1.031502 3.844688-172.7296703 103.431502-195.7978021 109.714286-23.0681319 6.282783-46.69890114-7.595605-52.79413924-30.945055-6.09523809-23.349451 7.68937729-47.261539 30.66373624-53.544323z" opacity=".2"/><path d="m32.7267399 171.041758c23.0681319-6.282784 179.3875461 29.069597 180.7003661 33.945788 1.031502 3.844688-135.5956042 44.167033-158.663736 50.449817-23.0681319 6.282784-46.69890114-7.595605-52.79413923-30.945055-6.0014652-23.255678 7.78315018-47.167766 30.75750913-53.45055z" opacity=".1"/><path d="m86.4586081 225.054945c6.2827838-23.255678-28.8820513-180.7003662-33.8520147-182.0131868-3.8446886-1.0315018-43.79194139 136.5333338-49.98095237 159.7890108-6.18901099 23.255678 7.59560437 47.073993 30.75750917 53.075458 23.0681319 6.189011 46.8864469-7.595604 53.0754579-30.851282z" opacity=".1"/><path d="m86.4586081 225.054945c6.2827838-23.255678 29.9135529-218.11575086 25.0373629-219.42857137-3.844689-1.03150184-102.58754609 173.94871837-108.87032997 197.29816837-6.18901099 23.255678 7.59560437 47.073993 30.75750917 53.075458 23.0681319 6.189011 46.8864469-7.689377 53.0754579-30.945055z" opacity=".2"/></g></svg>

<?xml version="1.0" encoding="UTF-8" standalone="no"?>
<svg width="256px" height="258px" viewBox="0 0 256 258" version="1.1" xmlns="http://www.w3.org/2000/svg" xmlns:xlink="http://www.w3.org/1999/xlink" preserveAspectRatio="xMidYMid">
	<g fill="#FFA64D">
		<path d="M13.221978,183.044689 C30.007326,165.978022 244.278388,4.78241758 247.935531,8.43956044 C250.748718,11.2527473 91.4285714,228.055678 74.5494505,245.028571 C57.6703297,262.001465 30.2886447,261.813919 13.4095238,244.747253 C-3.56336996,227.680586 -3.56336996,200.017582 13.221978,183.044689 L13.221978,183.044689 Z" opacity="0.5"></path>
		<path d="M22.6930403,175.449084 C43.3230769,163.352381 252.811722,80.2695971 255.34359,84.770696 C257.312821,88.240293 86.552381,239.308425 65.8285714,251.311355 C45.1985348,263.314286 18.8483516,256.093773 6.93919414,235.088645 C-4.96996337,214.271062 2.06300366,187.545788 22.6930403,175.449084 L22.6930403,175.449084 Z" opacity="0.3"></path>
		<path d="M82.0512821,235.27619 C94.0542125,214.458608 176.386813,3.46959707 171.979487,0.937728938 C168.50989,-1.03150183 18.6608059,171.041758 6.65787546,191.859341 C-5.25128205,212.676923 1.96923077,239.214652 22.7868132,251.12381 C43.5106227,263.12674 70.0483516,256 82.0512821,235.27619 L82.0512821,235.27619 Z" opacity="0.3"></path>
		<path d="M32.7267399,171.041758 C55.7948718,164.758974 249.248352,140.846886 250.654945,145.81685 C251.686447,149.661538 77.9252747,249.248352 54.8571429,255.531136 C31.789011,261.813919 8.15824176,247.935531 2.06300366,224.586081 C-4.03223443,201.23663 9.75238095,177.324542 32.7267399,171.041758 L32.7267399,171.041758 Z" opacity="0.2"></path>
		<path d="M32.7267399,171.041758 C55.7948718,164.758974 212.114286,200.111355 213.427106,204.987546 C214.458608,208.832234 77.8315018,249.154579 54.76337,255.437363 C31.6952381,261.720147 8.06446886,247.841758 1.96923077,224.492308 C-4.03223443,201.23663 9.75238095,177.324542 32.7267399,171.041758 L32.7267399,171.041758 Z" opacity="0.1"></path>
		<path d="M86.4586081,225.054945 C92.7413919,201.799267 57.5765568,44.3545788 52.6065934,43.0417582 C48.7619048,42.0102564 8.81465201,179.575092 2.62564103,202.830769 C-3.56336996,226.086447 10.2212454,249.904762 33.3831502,255.906227 C56.4512821,262.095238 80.2695971,248.310623 86.4586081,225.054945 L86.4586081,225.054945 Z" opacity="0.1"></path>
		<path d="M86.4586081,225.054945 C92.7413919,201.799267 116.372161,6.93919414 111.495971,5.62637363 C107.651282,4.59487179 8.90842491,179.575092 2.62564103,202.924542 C-3.56336996,226.18022 10.2212454,249.998535 33.3831502,256 C56.4512821,262.189011 80.2695971,248.310623 86.4586081,225.054945 L86.4586081,225.054945 Z" opacity="0.2"></path>
	</g>
</svg>
